packages/kaspersky-hexa-ui-icons/src/iconsSVGs/24/OperaColor.svg

<svg width="24" height="24" viewBox="0 0 24 24" fill="none" xmlns="http://www.w3.org/2000/svg">
<path d="M11.9998 2.00064C6.47721 2.00064 2.00024 6.47761 2.00024 12.0002C2.00024 17.3629 6.22216 21.7397 11.5235 21.9881C11.6817 21.9955 11.8402 21.9998 11.9999 21.9998C14.5601 21.9998 16.8949 21.0371 18.664 19.455C17.4919 20.2324 16.1215 20.6796 14.657 20.6796C12.2756 20.6796 10.143 19.4983 8.7086 17.6354C7.60289 16.3302 6.88674 14.4008 6.83795 12.2356V11.7646C6.8867 9.59947 7.60285 7.66973 8.70832 6.36485C10.1429 4.50192 12.2755 3.32057 14.6567 3.32057C16.1216 3.32057 17.4922 3.76785 18.6645 4.5457C16.904 2.97084 14.5833 2.01015 12.0374 2.0007C12.0247 2.0007 12.0123 2.0002 11.9996 2.0002L11.9998 2.00064Z" fill="url(#paint0_linear_38333_2143)"/>
<path d="M8.7085 6.36549C9.62615 5.28218 10.8112 4.62893 12.106 4.62893C15.0172 4.62893 17.3767 7.92941 17.3767 12.0007C17.3767 16.072 15.017 19.3725 12.106 19.3725C10.8112 19.3725 9.62615 18.7195 8.70874 17.6361C10.1431 19.4991 12.2756 20.6804 14.6571 20.6804C16.1218 20.6804 17.4921 20.2331 18.6642 19.4558C20.7109 17.6247 21.9997 14.9633 21.9997 12.0008C21.9997 9.03858 20.7112 6.37731 18.6649 4.54645C17.4925 3.7686 16.1219 3.32132 14.6571 3.32132C12.2758 3.32132 10.1428 4.50256 8.7085 6.36549Z" fill="url(#paint1_linear_38333_2143)"/>
<defs>
<linearGradient id="paint0_linear_38333_2143" x1="10.3326" y1="2.3266" x2="10.3326" y2="21.709" gradientUnits="userSpaceOnUse">
<stop stop-color="#FF1B2D"/>
<stop offset="0.3" stop-color="#FF1B2D"/>
<stop offset="0.614" stop-color="#FF1B2D"/>
<stop offset="1" stop-color="#A70014"/>
</linearGradient>
<linearGradient id="paint1_linear_38333_2143" x1="15.3539" y1="3.46927" x2="15.3539" y2="20.612" gradientUnits="userSpaceOnUse">
<stop stop-color="#9C0000"/>
<stop offset="0.7" stop-color="#FF4B4B"/>
<stop offset="1" stop-color="#FF4B4B"/>
</linearGradient>
</defs>
</svg>

<svg xmlns="http://www.w3.org/2000/svg" width="24" height="24" fill="none" viewBox="0 0 24 24"><path fill="url(#a)" d="M11.9998 2.0006c-5.5226 0-9.9996 4.477-9.9996 9.9996 0 5.3627 4.222 9.7395 9.5233 9.9879.1582.0074.3167.0117.4764.0117 2.5602 0 4.895-.9627 6.6641-2.5448-1.1721.7774-2.5425 1.2246-4.007 1.2246-2.3814 0-4.514-1.1813-5.9484-3.0442-1.1057-1.3052-1.8219-3.2346-1.8707-5.3998v-.471c.0488-2.1651.765-4.0949 1.8704-5.3997 1.4346-1.863 3.5672-3.0443 5.9484-3.0443 1.4649 0 2.8355.4472 4.0078 1.2251-1.7605-1.5749-4.0812-2.5356-6.6271-2.545-.0127 0-.0251-.0005-.0378-.0005z"/><path fill="url(#b)" d="M8.7085 6.3655c.9177-1.0833 2.1027-1.7366 3.3975-1.7366 2.9112 0 5.2707 3.3005 5.2707 7.3718s-2.3597 7.3718-5.2707 7.3718c-1.2948 0-2.4798-.653-3.3973-1.7364 1.4344 1.863 3.5669 3.0443 5.9484 3.0443 1.4647 0 2.835-.4473 4.0071-1.2246 2.0467-1.8311 3.3355-4.4925 3.3355-7.455 0-2.9622-1.2885-5.6235-3.3348-7.4543-1.1724-.7779-2.543-1.2252-4.0078-1.2252-2.3813 0-4.5143 1.1813-5.9486 3.0442"/><defs><linearGradient id="a" x1="10" x2="10" y1="2" y2="22" gradientUnits="userSpaceOnUse"><stop stop-color="#ff1b2d"/><stop offset="0" stop-color="#ff1b2d"/><stop offset="1" stop-color="#ff1b2d"/><stop offset="1" stop-color="#a70014"/></linearGradient><linearGradient id="b" x1="15" x2="15" y1="3" y2="21" gradientUnits="userSpaceOnUse"><stop stop-color="#9c0000"/><stop offset="1" stop-color="#ff4b4b"/><stop offset="1" stop-color="#ff4b4b"/></linearGradient></defs></svg>
